X: 10268
T: Dod's Tartan Punk Rock Trews
R: reel
M: 4/4
K: Dmixolydian
[K:D]GA~A2 dcGA|~A2 cd eg f2-|fdeg f4|~a2 gf ed ~d2|
GA~A2 dcGA|~A2 cd eg f2-|fGBd eg f2|edcd ed ~d2:|
GA ~A2 dcAc-|c4 d4|GA ~A2 dcAf-|f4 g4|
~a2 ge gega-|aage ge a2-|a2 ge gede|edcG ~A2 dc:|

